X: 464
M:3/2
L:1/8
K:FDor
fgaf g2a2b2ag | a2gfg2a2=e2dc | fgafg2a2b2ag | f2c4B2A2GF ||
f2F4fga2gf | g2E4gab2ag | a2F4Bc _d2cB | c2e4B2A2GF ||
c2f4g2a2gf | B2f4g2a2gf | A2f4g2a2gf | c2f4B2A2GF ||
fgaf gabg fgaf | g2e4B2G2FE | fgaf gaba fgaf | f2c4B2A2GF ||

